X:882
T:Roudledum
R:Slip Jig
O:Ireland
B:O'Neill's 1125
B:O'Neill's 1126
S:1 O'Neill's 1125
S:2 O'Neill's 1126
Z:Transcription, chords:Mike Long
M:9/8
L:1/8
K:D
P:Arr. 1
"D"Dzd dcB "A"czA|"D"ded fed "A"fga|\
"G"bge "D"afd "A"cBA|"G"BcB Bz{cB}A Bcd:|
|:"Em"BEE BzE "D"FED|"Em"BEE BzE {e}"D"dcd|\
"Em"BEE BzE "D"FED|"D"AGF "A"FED "D"FGA:|
P:Arr. 2
"D"Ddd dAG "A"FGE|"D"Ddd dcB "A"cde|\
"D"def "G"gec "D"d2B|[1 "D"ABc "A"dAG "D"FGE:|[2 "G"BAF "D"dAF "A"EFA|]
K:G
|:"Em"BEB BAG "D"F2F|"Em"EBB BAF "Am"ABc|\
"Em"BEE BAG "D"F2F|[1 "D"DED FDF "Am"ABc:|[2 "D"DED "G"BAF "A"EFA|]
